packages/kaspersky-hexa-ui-icons/src/iconsSVGs/16/Active1.svg

<svg width="16" height="16" viewBox="0 0 16 16" fill="none" xmlns="http://www.w3.org/2000/svg">
<path d="M10.9727 7.12629C11.2265 6.87245 11.2265 6.46089 10.9727 6.20705C10.7188 5.95321 10.3073 5.95321 10.0534 6.20705L7.54365 8.71682L6.45962 7.63278C6.20578 7.37894 5.79422 7.37894 5.54038 7.63278C5.28654 7.88662 5.28654 8.29818 5.54038 8.55202L7.08403 10.0957C7.20593 10.2176 7.37126 10.2861 7.54365 10.2861C7.71604 10.2861 7.88137 10.2176 8.00327 10.0957L10.9727 7.12629Z" fill="black"/>
<path fill-rule="evenodd" clip-rule="evenodd" d="M1 3.6C1 2.16406 2.16406 1 3.6 1H12.4C13.8359 1 15 2.16406 15 3.6V12.3964C15 13.8324 13.8359 14.9964 12.4 14.9964H3.6C2.16406 14.9964 1 13.8324 1 12.3964V3.6ZM3.6 2.3H12.4C13.118 2.3 13.7 2.88203 13.7 3.6V12.3964C13.7 13.1144 13.118 13.6964 12.4 13.6964H3.6C2.88203 13.6964 2.3 13.1144 2.3 12.3964V3.6C2.3 2.88203 2.88203 2.3 3.6 2.3Z" fill="black"/>
</svg>

<svg xmlns="http://www.w3.org/2000/svg" width="16" height="16" fill="none" viewBox="0 0 16 16"><path fill="#000" d="M10.9727 7.1263a.65.65 0 0 0-.9193-.9192L7.5437 8.7168l-1.084-1.084a.65.65 0 0 0-.9193.9192l1.5436 1.5437a.65.65 0 0 0 .9193 0z"/><path fill="#000" fill-rule="evenodd" d="M1 3.6C1 2.164 2.164 1 3.6 1h8.8C13.8359 1 15 2.164 15 3.6v8.7964c0 1.436-1.1641 2.6-2.6 2.6H3.6c-1.436 0-2.6-1.164-2.6-2.6zm2.6-1.3h8.8c.718 0 1.3.582 1.3 1.3v8.7964c0 .718-.582 1.3-1.3 1.3H3.6c-.718 0-1.3-.582-1.3-1.3V3.6c0-.718.582-1.3 1.3-1.3" clip-rule="evenodd"/></svg>
